bernoullicharts/2014_add_x_0_3_bits.svg

<?xml version="1.0" encoding="utf-8" standalone="no"?>
<!DOCTYPE svg PUBLIC "-//W3C//DTD SVG 1.1//EN"
  "http://www.w3.org/Graphics/SVG/1.1/DTD/svg11.dtd">
<!-- Created with matplotlib (https://matplotlib.org/) -->
<svg height="345.6pt" version="1.1" viewBox="0 0 460.8 345.6" width="460.8pt" xmlns="http://www.w3.org/2000/svg" xmlns:xlink="http://www.w3.org/1999/xlink">
 <defs>
  <style type="text/css">
*{stroke-linecap:butt;stroke-linejoin:round;}
  </style>
 </defs>
 <g id="figure_1">
  <g id="patch_1">
   <path d="M 0 345.6 
L 460.8 345.6 
L 460.8 0 
L 0 0 
z
" style="fill:#ffffff;"/>
  </g>
  <g id="axes_1">
   <g id="patch_2">
    <path d="M 57.6 307.584 
L 414.72 307.584 
L 414.72 41.472 
L 57.6 41.472 
z
" style="fill:#ffffff;"/>
   </g>
   <g id="matplotlib.axis_1">
    <g id="xtick_1">
     <g id="line2d_1">
      <defs>
       <path d="M 0 0 
L 0 3.5 
" id="m4186bffe07" style="stroke:#000000;stroke-width:0.8;"/>
      </defs>
      <g>
       <use style="stroke:#000000;stroke-width:0.8;" x="73.77824" xlink:href="#m4186bffe07" y="307.584"/>
      </g>
     </g>
     <g id="text_1">
      <text style="font-family:DejaVu Sans;font-size:10px;font-style:normal;font-weight:normal;text-anchor:middle;" transform="rotate(-0, 73.77824, 322.182437)" x="73.77824" y="322.182437">0.0</text>
     </g>
    </g>
    <g id="xtick_2">
     <g id="line2d_2">
      <g>
       <use style="stroke:#000000;stroke-width:0.8;" x="128.26507" xlink:href="#m4186bffe07" y="307.584"/>
      </g>
     </g>
     <g id="text_2">
      <text style="font-family:DejaVu Sans;font-size:10px;font-style:normal;font-weight:normal;text-anchor:middle;" transform="rotate(-0, 128.26507, 322.182437)" x="128.26507" y="322.182437">0.1</text>
     </g>
    </g>
    <g id="xtick_3">
     <g id="line2d_3">
      <g>
       <use style="stroke:#000000;stroke-width:0.8;" x="182.7519" xlink:href="#m4186bffe07" y="307.584"/>
      </g>
     </g>
     <g id="text_3">
      <text style="font-family:DejaVu Sans;font-size:10px;font-style:normal;font-weight:normal;text-anchor:middle;" transform="rotate(-0, 182.7519, 322.182437)" x="182.7519" y="322.182437">0.2</text>
     </g>
    </g>
    <g id="xtick_4">
     <g id="line2d_4">
      <g>
       <use style="stroke:#000000;stroke-width:0.8;" x="237.238729" xlink:href="#m4186bffe07" y="307.584"/>
      </g>
     </g>
     <g id="text_4">
      <text style="font-family:DejaVu Sans;font-size:10px;font-style:normal;font-weight:normal;text-anchor:middle;" transform="rotate(-0, 237.238729, 322.182437)" x="237.238729" y="322.182437">0.3</text>
     </g>
    </g>
    <g id="xtick_5">
     <g id="line2d_5">
      <g>
       <use style="stroke:#000000;stroke-width:0.8;" x="291.725559" xlink:href="#m4186bffe07" y="307.584"/>
      </g>
     </g>
     <g id="text_5">
      <text style="font-family:DejaVu Sans;font-size:10px;font-style:normal;font-weight:normal;text-anchor:middle;" transform="rotate(-0, 291.725559, 322.182437)" x="291.725559" y="322.182437">0.4</text>
     </g>
    </g>
    <g id="xtick_6">
     <g id="line2d_6">
      <g>
       <use style="stroke:#000000;stroke-width:0.8;" x="346.212388" xlink:href="#m4186bffe07" y="307.584"/>
      </g>
     </g>
     <g id="text_6">
      <text style="font-family:DejaVu Sans;font-size:10px;font-style:normal;font-weight:normal;text-anchor:middle;" transform="rotate(-0, 346.212388, 322.182437)" x="346.212388" y="322.182437">0.5</text>
     </g>
    </g>
    <g id="xtick_7">
     <g id="line2d_7">
      <g>
       <use style="stroke:#000000;stroke-width:0.8;" x="400.699218" xlink:href="#m4186bffe07" y="307.584"/>
      </g>
     </g>
     <g id="text_7">
      <text style="font-family:DejaVu Sans;font-size:10px;font-style:normal;font-weight:normal;text-anchor:middle;" transform="rotate(-0, 400.699218, 322.182437)" x="400.699218" y="322.182437">0.6</text>
     </g>
    </g>
    <g id="text_8">
     <text style="font-family:DejaVu Sans;font-size:10px;font-style:normal;font-weight:normal;text-anchor:middle;" transform="rotate(-0, 236.16, 335.860562)" x="236.16" y="335.860562">Probability</text>
    </g>
   </g>
   <g id="matplotlib.axis_2">
    <g id="ytick_1">
     <g id="line2d_8">
      <defs>
       <path d="M 0 0 
L -3.5 0 
" id="m0e77c2b9ac" style="stroke:#000000;stroke-width:0.8;"/>
      </defs>
      <g>
       <use style="stroke:#000000;stroke-width:0.8;" x="57.6" xlink:href="#m0e77c2b9ac" y="289.7975"/>
      </g>
     </g>
     <g id="text_9">
      <text style="font-family:DejaVu Sans;font-size:10px;font-style:normal;font-weight:normal;text-anchor:end;" transform="rotate(-0, 50.6, 293.596719)" x="50.6" y="293.596719">50</text>
     </g>
    </g>
    <g id="ytick_2">
     <g id="line2d_9">
      <g>
       <use style="stroke:#000000;stroke-width:0.8;" x="57.6" xlink:href="#m0e77c2b9ac" y="248.823278"/>
      </g>
     </g>
     <g id="text_10">
      <text style="font-family:DejaVu Sans;font-size:10px;font-style:normal;font-weight:normal;text-anchor:end;" transform="rotate(-0, 50.6, 252.622497)" x="50.6" y="252.622497">100</text>
     </g>
    </g>
    <g id="ytick_3">
     <g id="line2d_10">
      <g>
       <use style="stroke:#000000;stroke-width:0.8;" x="57.6" xlink:href="#m0e77c2b9ac" y="207.849057"/>
      </g>
     </g>
     <g id="text_11">
      <text style="font-family:DejaVu Sans;font-size:10px;font-style:normal;font-weight:normal;text-anchor:end;" transform="rotate(-0, 50.6, 211.648275)" x="50.6" y="211.648275">150</text>
     </g>
    </g>
    <g id="ytick_4">
     <g id="line2d_11">
      <g>
       <use style="stroke:#000000;stroke-width:0.8;" x="57.6" xlink:href="#m0e77c2b9ac" y="166.874835"/>
      </g>
     </g>
     <g id="text_12">
      <text style="font-family:DejaVu Sans;font-size:10px;font-style:normal;font-weight:normal;text-anchor:end;" transform="rotate(-0, 50.6, 170.674054)" x="50.6" y="170.674054">200</text>
     </g>
    </g>
    <g id="ytick_5">
     <g id="line2d_12">
      <g>
       <use style="stroke:#000000;stroke-width:0.8;" x="57.6" xlink:href="#m0e77c2b9ac" y="125.900613"/>
      </g>
     </g>
     <g id="text_13">
      <text style="font-family:DejaVu Sans;font-size:10px;font-style:normal;font-weight:normal;text-anchor:end;" transform="rotate(-0, 50.6, 129.699832)" x="50.6" y="129.699832">250</text>
     </g>
    </g>
    <g id="ytick_6">
     <g id="line2d_13">
      <g>
       <use style="stroke:#000000;stroke-width:0.8;" x="57.6" xlink:href="#m0e77c2b9ac" y="84.926391"/>
      </g>
     </g>
     <g id="text_14">
      <text style="font-family:DejaVu Sans;font-size:10px;font-style:normal;font-weight:normal;text-anchor:end;" transform="rotate(-0, 50.6, 88.72561)" x="50.6" y="88.72561">300</text>
     </g>
    </g>
    <g id="ytick_7">
     <g id="line2d_14">
      <g>
       <use style="stroke:#000000;stroke-width:0.8;" x="57.6" xlink:href="#m0e77c2b9ac" y="43.95217"/>
      </g>
     </g>
     <g id="text_15">
      <text style="font-family:DejaVu Sans;font-size:10px;font-style:normal;font-weight:normal;text-anchor:end;" transform="rotate(-0, 50.6, 47.751388)" x="50.6" y="47.751388">350</text>
     </g>
    </g>
    <g id="text_16">
     <text style="font-family:DejaVu Sans;font-size:10px;font-style:normal;font-weight:normal;text-anchor:middle;" transform="rotate(-90, 25.432812, 174.528)" x="25.432812" y="174.528">Average Bits Consumed Per Call</text>
    </g>
   </g>
   <g id="line2d_15">
    <path clip-path="url(#p38fe5160fd)" d="M 73.832727 291.048033 
L 79.335347 292.882039 
L 84.837966 293.845753 
L 90.340586 294.953696 
L 95.843205 290.966085 
L 101.345824 293.134441 
L 106.848444 295.488 
L 112.351063 284.880593 
L 117.853683 293.711358 
L 123.356302 291.136538 
L 128.858921 288.374875 
L 134.361541 292.254314 
L 139.86416 287.001419 
L 145.36678 287.771735 
L 150.869399 281.266667 
L 156.372018 285.429648 
L 161.874638 289.361534 
L 167.377257 289.505764 
L 172.879877 281.332226 
L 178.382496 277.615044 
L 183.885116 284.944513 
L 189.387735 282.213991 
L 194.890354 286.68182 
L 200.392974 281.05524 
L 205.895593 284.657694 
L 211.398213 276.738196 
L 216.900832 281.520707 
L 222.403451 277.488844 
L 227.906071 276.993875 
L 233.40869 274.197794 
L 238.91131 282.584398 
L 244.413929 260.923786 
L 249.916549 281.607573 
L 255.419168 276.456293 
L 260.921787 274.022425 
L 266.424407 271.691811 
L 271.927026 268.020521 
L 277.429646 265.894778 
L 282.932265 279.604753 
L 288.434884 267.618973 
L 293.937504 247.918568 
L 299.440123 256.377286 
L 304.942743 250.683508 
L 310.445362 256.682134 
L 315.947982 254.871073 
L 321.450601 258.811155 
M 332.45584 238.160147 
M 398.487273 169.429987 
" style="fill:none;stroke:#1f77b4;stroke-linecap:square;stroke-width:1.5;"/>
   </g>
   <g id="line2d_16">
    <path clip-path="url(#p38fe5160fd)" d="M 73.832727 253.515646 
L 79.335347 254.87599 
L 84.837966 249.555897 
L 90.340586 251.02933 
L 95.843205 257.313137 
L 101.345824 248.590545 
L 106.848444 240.55468 
L 112.351063 240.180995 
L 117.853683 240.366199 
L 123.356302 240.677603 
L 128.858921 240.441592 
L 134.361541 240.06299 
L 139.86416 235.436181 
L 145.36678 237.804491 
L 150.869399 235.824616 
L 156.372018 223.761805 
L 161.874638 227.247892 
L 167.377257 226.79062 
L 172.879877 225.279491 
L 178.382496 237.125958 
L 183.885116 223.040659 
L 189.387735 224.958253 
L 194.890354 232.469647 
L 200.392974 215.308004 
L 205.895593 210.186226 
L 211.398213 211.907144 
L 216.900832 211.00735 
L 222.403451 200.142625 
L 227.906071 203.510706 
L 233.40869 201.870098 
L 238.91131 205.875738 
L 244.413929 199.95906 
L 249.916549 197.44816 
L 255.419168 185.745922 
L 260.921787 183.22191 
L 266.424407 186.640799 
L 271.927026 179.091709 
L 277.429646 156.862374 
L 282.932265 131.666506 
M 293.937504 145.74197 
M 304.942743 144.211173 
L 310.445362 144.302956 
L 315.947982 120.229781 
M 326.95322 124.933621 
L 332.45584 108.760277 
L 337.958459 101.335748 
M 354.466317 104.557961 
" style="fill:none;stroke:#ff7f0e;stroke-linecap:square;stroke-width:1.5;"/>
   </g>
   <g id="line2d_17">
    <path clip-path="url(#p38fe5160fd)" d="M 310.445362 53.568 
M 343.461079 147.162956 
" style="fill:none;stroke:#2ca02c;stroke-linecap:square;stroke-width:1.5;"/>
   </g>
   <g id="patch_3">
    <path d="M 57.6 307.584 
L 57.6 41.472 
" style="fill:none;stroke:#000000;stroke-linecap:square;stroke-linejoin:miter;stroke-width:0.8;"/>
   </g>
   <g id="patch_4">
    <path d="M 414.72 307.584 
L 414.72 41.472 
" style="fill:none;stroke:#000000;stroke-linecap:square;stroke-linejoin:miter;stroke-width:0.8;"/>
   </g>
   <g id="patch_5">
    <path d="M 57.6 307.584 
L 414.72 307.584 
" style="fill:none;stroke:#000000;stroke-linecap:square;stroke-linejoin:miter;stroke-width:0.8;"/>
   </g>
   <g id="patch_6">
    <path d="M 57.6 41.472 
L 414.72 41.472 
" style="fill:none;stroke:#000000;stroke-linecap:square;stroke-linejoin:miter;stroke-width:0.8;"/>
   </g>
   <g id="text_17">
    <text style="font-family:DejaVu Sans;font-size:12px;font-style:normal;font-weight:normal;text-anchor:middle;" transform="rotate(-0, 236.16, 35.472)" x="236.16" y="35.472">Avg. Bits Consumed by 2014 Add. x+0.3 Algorithm</text>
   </g>
   <g id="legend_1">
    <g id="patch_7">
     <path d="M 64.6 93.506375 
L 181.148438 93.506375 
Q 183.148438 93.506375 183.148438 91.506375 
L 183.148438 48.472 
Q 183.148438 46.472 181.148438 46.472 
L 64.6 46.472 
Q 62.6 46.472 62.6 48.472 
L 62.6 91.506375 
Q 62.6 93.506375 64.6 93.506375 
z
" style="fill:#ffffff;opacity:0.8;stroke:#cccccc;stroke-linejoin:miter;"/>
    </g>
    <g id="line2d_18">
     <path d="M 66.6 54.570438 
L 86.6 54.570438 
" style="fill:none;stroke:#1f77b4;stroke-linecap:square;stroke-width:1.5;"/>
    </g>
    <g id="line2d_19"/>
    <g id="text_18">
     <text style="font-family:DejaVu Sans;font-size:10px;font-style:normal;font-weight:normal;text-anchor:start;" transform="rotate(-0, 94.6, 58.070438)" x="94.6" y="58.070438">2014 Add. x+0.3</text>
    </g>
    <g id="line2d_20">
     <path d="M 66.6 69.248563 
L 86.6 69.248563 
" style="fill:none;stroke:#ff7f0e;stroke-linecap:square;stroke-width:1.5;"/>
    </g>
    <g id="line2d_21"/>
    <g id="text_19">
     <text style="font-family:DejaVu Sans;font-size:10px;font-style:normal;font-weight:normal;text-anchor:start;" transform="rotate(-0, 94.6, 72.748563)" x="94.6" y="72.748563">2016 Add. x+0.3</text>
    </g>
    <g id="line2d_22">
     <path d="M 66.6 83.926688 
L 86.6 83.926688 
" style="fill:none;stroke:#2ca02c;stroke-linecap:square;stroke-width:1.5;"/>
    </g>
    <g id="line2d_23"/>
    <g id="text_20">
     <text style="font-family:DejaVu Sans;font-size:10px;font-style:normal;font-weight:normal;text-anchor:start;" transform="rotate(-0, 94.6, 87.426688)" x="94.6" y="87.426688">2019 Add. x+0.3</text>
    </g>
   </g>
  </g>
 </g>
 <defs>
  <clipPath id="p38fe5160fd">
   <rect height="266.112" width="357.12" x="57.6" y="41.472"/>
  </clipPath>
 </defs>
</svg>

<svg height="460.8" viewBox="0 0 460.8 345.6" width="614.4" xmlns="http://www.w3.org/2000/svg" xmlns:xlink="http://www.w3.org/1999/xlink"><defs><style>*{stroke-linecap:butt;stroke-linejoin:round}</style></defs><g id="figure_1"><path d="M0 345.6h460.8V0H0z" fill="#fff" id="patch_1"/><g id="axes_1"><path d="M57.6 307.584h357.12V41.472H57.6z" fill="#fff" id="patch_2"/><g id="matplotlib.axis_1"><g id="xtick_1"><g id="line2d_1"><defs><path d="M0 0v3.5" id="m4186bffe07" stroke="#000" stroke-width=".8"/></defs><use x="73.778" xlink:href="#m4186bffe07" y="307.584" stroke="#000" stroke-width=".8"/></g><text x="73.778" y="322.182" font-family="DejaVu Sans" font-size="10" font-weight="400" text-anchor="middle" id="text_1">0.0</text></g><g id="xtick_2"><use x="128.265" xlink:href="#m4186bffe07" y="307.584" stroke="#000" stroke-width=".8" id="line2d_2"/><text x="128.265" y="322.182" font-family="DejaVu Sans" font-size="10" font-weight="400" text-anchor="middle" id="text_2">0.1</text></g><g id="xtick_3"><use x="182.752" xlink:href="#m4186bffe07" y="307.584" stroke="#000" stroke-width=".8" id="line2d_3"/><text x="182.752" y="322.182" font-family="DejaVu Sans" font-size="10" font-weight="400" text-anchor="middle" id="text_3">0.2</text></g><g id="xtick_4"><use x="237.239" xlink:href="#m4186bffe07" y="307.584" stroke="#000" stroke-width=".8" id="line2d_4"/><text x="237.239" y="322.182" font-family="DejaVu Sans" font-size="10" font-weight="400" text-anchor="middle" id="text_4">0.3</text></g><g id="xtick_5"><use x="291.726" xlink:href="#m4186bffe07" y="307.584" stroke="#000" stroke-width=".8" id="line2d_5"/><text x="291.726" y="322.182" font-family="DejaVu Sans" font-size="10" font-weight="400" text-anchor="middle" id="text_5">0.4</text></g><g id="xtick_6"><use x="346.212" xlink:href="#m4186bffe07" y="307.584" stroke="#000" stroke-width=".8" id="line2d_6"/><text x="346.212" y="322.182" font-family="DejaVu Sans" font-size="10" font-weight="400" text-anchor="middle" id="text_6">0.5</text></g><g id="xtick_7"><use x="400.699" xlink:href="#m4186bffe07" y="307.584" stroke="#000" stroke-width=".8" id="line2d_7"/><text x="400.699" y="322.182" font-family="DejaVu Sans" font-size="10" font-weight="400" text-anchor="middle" id="text_7">0.6</text></g><text x="236.16" y="335.861" font-family="DejaVu Sans" font-size="10" font-weight="400" text-anchor="middle" id="text_8">Probability</text></g><g id="matplotlib.axis_2"><g id="ytick_1"><g id="line2d_8"><defs><path d="M0 0h-3.5" id="m0e77c2b9ac" stroke="#000" stroke-width=".8"/></defs><use x="57.6" xlink:href="#m0e77c2b9ac" y="289.798" stroke="#000" stroke-width=".8"/></g><text x="50.6" y="293.597" font-family="DejaVu Sans" font-size="10" font-weight="400" text-anchor="end" id="text_9">50</text></g><g id="ytick_2"><use x="57.6" xlink:href="#m0e77c2b9ac" y="248.823" stroke="#000" stroke-width=".8" id="line2d_9"/><text x="50.6" y="252.622" font-family="DejaVu Sans" font-size="10" font-weight="400" text-anchor="end" id="text_10">100</text></g><g id="ytick_3"><use x="57.6" xlink:href="#m0e77c2b9ac" y="207.849" stroke="#000" stroke-width=".8" id="line2d_10"/><text x="50.6" y="211.648" font-family="DejaVu Sans" font-size="10" font-weight="400" text-anchor="end" id="text_11">150</text></g><g id="ytick_4"><use x="57.6" xlink:href="#m0e77c2b9ac" y="166.875" stroke="#000" stroke-width=".8" id="line2d_11"/><text x="50.6" y="170.674" font-family="DejaVu Sans" font-size="10" font-weight="400" text-anchor="end" id="text_12">200</text></g><g id="ytick_5"><use x="57.6" xlink:href="#m0e77c2b9ac" y="125.901" stroke="#000" stroke-width=".8" id="line2d_12"/><text x="50.6" y="129.7" font-family="DejaVu Sans" font-size="10" font-weight="400" text-anchor="end" id="text_13">250</text></g><g id="ytick_6"><use x="57.6" xlink:href="#m0e77c2b9ac" y="84.926" stroke="#000" stroke-width=".8" id="line2d_13"/><text x="50.6" y="88.726" font-family="DejaVu Sans" font-size="10" font-weight="400" text-anchor="end" id="text_14">300</text></g><g id="ytick_7"><use x="57.6" xlink:href="#m0e77c2b9ac" y="43.952" stroke="#000" stroke-width=".8" id="line2d_14"/><text x="50.6" y="47.751" font-family="DejaVu Sans" font-size="10" font-weight="400" text-anchor="end" id="text_15">350</text></g><text transform="rotate(-90 25.433 174.528)" x="25.433" y="174.528" font-family="DejaVu Sans" font-size="10" font-weight="400" text-anchor="middle" id="text_16">Average Bits Consumed Per Call</text></g><path clip-path="url(#p38fe5160fd)" d="M73.833 291.048l5.502 1.834 5.503.964 5.503 1.108 5.502-3.988 5.503 2.168 5.502 2.354 5.503-10.607 5.503 8.83 5.502-2.574 5.503-2.762 5.503 3.88 5.502-5.254 5.503.77 5.502-6.504 5.503 4.163 5.503 3.932 5.502.144 5.503-8.174 5.502-3.717 5.503 7.33 5.503-2.731 5.502 4.468 5.503-5.627 5.503 3.603 5.502-7.92 5.503 4.783 5.502-4.032 5.503-.495 5.503-2.796 5.502 8.386 5.503-21.66 5.503 20.684 5.502-5.152 5.503-2.434 5.502-2.33 5.503-3.671 5.503-2.126 5.502 13.71 5.503-11.986 5.503-19.7 5.502 8.458 5.503-5.693 5.502 5.998 5.503-1.81 5.503 3.94m77.036-89.382" fill="none" stroke="#1f77b4" stroke-linecap="square" stroke-width="1.5" id="line2d_15"/><path clip-path="url(#p38fe5160fd)" d="M73.833 253.516l5.502 1.36 5.503-5.32 5.503 1.473 5.502 6.284 5.503-8.722 5.502-8.036 5.503-.374 5.503.185 5.502.312 5.503-.236 5.503-.379 5.502-4.627 5.503 2.368 5.502-1.98 5.503-12.062 5.503 3.486 5.502-.457 5.503-1.512 5.502 11.847 5.503-14.085 5.503 1.917 5.502 7.512 5.503-17.162 5.503-5.122 5.502 1.721 5.503-.9 5.502-10.864 5.503 3.368 5.503-1.64 5.502 4.005 5.503-5.917 5.503-2.51 5.502-11.703 5.503-2.524 5.502 3.419 5.503-7.55 5.503-22.229 5.502-25.195M304.943 144.212l5.502.091 5.503-24.073m11.005 4.704l5.503-16.174 5.502-7.424m16.508 3.222" fill="none" stroke="#ff7f0e" stroke-linecap="square" stroke-width="1.5" id="line2d_16"/><path clip-path="url(#p38fe5160fd)" d="M343.461 147.163" fill="none" stroke="#2ca02c" stroke-linecap="square" stroke-width="1.5" id="line2d_17"/><path d="M57.6 307.584V41.472" fill="none" stroke="#000" stroke-linecap="square" stroke-width=".8" id="patch_3"/><path d="M414.72 307.584V41.472" fill="none" stroke="#000" stroke-linecap="square" stroke-width=".8" id="patch_4"/><path d="M57.6 307.584h357.12" fill="none" stroke="#000" stroke-linecap="square" stroke-width=".8" id="patch_5"/><path d="M57.6 41.472h357.12" fill="none" stroke="#000" stroke-linecap="square" stroke-width=".8" id="patch_6"/><text x="236.16" y="35.472" font-family="DejaVu Sans" font-size="12" font-weight="400" text-anchor="middle" id="text_17">Avg. Bits Consumed by 2014 Add. x+0.3 Algorithm</text><g id="legend_1"><path d="M64.6 93.506h116.548q2 0 2-2V48.472q0-2-2-2H64.6q-2 0-2 2v43.034q0 2 2 2z" fill="#fff" opacity=".8" stroke="#ccc" id="patch_7"/><path d="M66.6 54.57h20" fill="none" stroke="#1f77b4" stroke-linecap="square" stroke-width="1.5" id="line2d_18"/><text x="94.6" y="58.07" font-family="DejaVu Sans" font-size="10" font-weight="400" id="text_18">2014 Add. x+0.3</text><path d="M66.6 69.249h20" fill="none" stroke="#ff7f0e" stroke-linecap="square" stroke-width="1.5" id="line2d_20"/><text x="94.6" y="72.749" font-family="DejaVu Sans" font-size="10" font-weight="400" id="text_19">2016 Add. x+0.3</text><path d="M66.6 83.927h20" fill="none" stroke="#2ca02c" stroke-linecap="square" stroke-width="1.5" id="line2d_22"/><text x="94.6" y="87.427" font-family="DejaVu Sans" font-size="10" font-weight="400" id="text_20">2019 Add. x+0.3</text></g></g></g><defs><clipPath id="p38fe5160fd"><path d="M57.6 41.472h357.12v266.112H57.6z"/></clipPath></defs></svg>
